icon-themes/breeze_svg/cmd/lc_arrowshapes.quad-arrow.svg

<svg viewBox="0 0 24 24" xmlns="http://www.w3.org/2000/svg"><path d="m12 4-3 3h2v4h-4v-2l-3 3 3 3v-2h4v4h-2l3 3 3-3h-2v-4h4v2l3-3-3-3v2h-4v-4h2z" fill="#4d4d4d"/></svg>

<svg xmlns="http://www.w3.org/2000/svg" viewBox="0 0 24 24">
 <path 
     style="fill:#4d4d4d" 
     d="M 12 4 L 9 7 L 11 7 L 11 11 L 7 11 L 7 9 L 4 12 L 7 15 L 7 13 L 11 13 L 11 17 L 9 17 L 12 20 L 15 17 L 13 17 L 13 13 L 17 13 L 17 15 L 20 12 L 17 9 L 17 11 L 13 11 L 13 7 L 15 7 L 12 4 z "
     />
 </svg>
